X: 643
T: Henry Reed's Favorite
B: jims roots
M:C|
L:1/8
R: Reel
Q: 1/4=100
K:Amix
V:1 
%Henry Reed
%Transcribed by John Brady [http://www.abbamoses.com/fiddledo/reedsfavorite.pdf]
(E2|:"A"E)AcA BAcA|E2 ED E2 (E2|E)ABc BAcA|[1 "E"EDE^G "A"A2 E2 :|
[2 "E"EDE^G "A"A2A2 |:"A"ABcd e2 ef | "G"gaba gdeB|
"A"ABcd e2 ef | "G"gaba gdBG | "A"DBAB "E"EDAG | "A"E2 ED E4:|
% abcbook-tune_id 6298c25d86e20c66a4d3abc4


% abcbook-boost 0
% abcbook-tablature 
% abcbook-transpose 
% abcbook-lastupdated 1654178398722
% abcbook-soundfonts 
% abcbook-repeats 1


